X:923
T:Love of My Early Days
C:Joe Buchanan's Scottish Tome - Page 542.4
I:542 4
Z:Carl Allison
R:Waltz
L:1/4
M:3/4
K:D
"A7"A, | "D"D2 D  | "A7"E2 F | "G7"G2 F | "D"A2 F | "Em7"E2 D | "A7"A,2 C | "G"D3- | "D"D2 "A7"A, |
"D"D2 D | "F#m"F2 A | "Bm"d3 | "Bm7"F2 F | "Em"E2 F | "Em7"G2 B | "A"A3- | "A7"A2G |
"D"F2 D | "F#m"F2 A | "Bm"d3 | "Bm7"F2 F | "Em"E2 F | "Em7"G2 B | "A"A3- | "A7"A2 A, |
"D"D2 D | "A7"E2 F | "G"G2 F | "D"A2 F | "Em7"E2 D | "A7"A,2 C | "G"D3- | "D"D2 "D7" :|

